src/places/16/folder-video.svg

<svg width="16" height="16" version="1.1" viewBox="0 0 16 16" xmlns="http://www.w3.org/2000/svg">
 <defs>
  <style id="current-color-scheme" type="text/css">.ColorScheme-Text { color:#363636; }</style>
 </defs>
 <path d="m2 1c-1.108 0-2 0.892-2 2v9c0 1.108 0.892 2 2 2h12c1.108 0 2-0.892 2-2v-9c0-1.108-0.892-2-2-2h-12zm0 1h1v1h-2c0-0.554 0.446-1 1-1zm2 0h8v5h-8v-5zm9 0h1c0.554 0 1 0.446 1 1h-2v-1zm-12 2h2v1h-2v-1zm12 0h2v1h-2v-1zm-12 2h2v1h-2v-1zm12 0h2v1h-2v-1zm-12 2h2v1h-2v-1zm3 0h8v5h-8v-5zm9 0h2v1h-2v-1zm-12 2h2v1h-2v-1zm12 0h2v1h-2v-1zm-12 2h2v1h-1c-0.554 0-1-0.446-1-1zm12 0h2c0 0.554-0.446 1-1 1h-1v-1z" style="fill:currentColor" class="ColorScheme-Text"/>
</svg>

<?xml version="1.0" encoding="UTF-8" standalone="no"?>
<svg
   width="16"
   height="16"
   version="1.1"
   viewBox="0 0 16 16"
   id="svg7"
   sodipodi:docname="folder-video.svg"
   inkscape:version="1.1.1 (3bf5ae0d25, 2021-09-20, custom)"
   xmlns:inkscape="http://www.inkscape.org/namespaces/inkscape"
   xmlns:sodipodi="http://sodipodi.sourceforge.net/DTD/sodipodi-0.dtd"
   xmlns:xlink="http://www.w3.org/1999/xlink"
   xmlns="http://www.w3.org/2000/svg"
   xmlns:svg="http://www.w3.org/2000/svg">
  <sodipodi:namedview
     id="namedview9"
     pagecolor="#ffffff"
     bordercolor="#999999"
     borderopacity="1"
     inkscape:pageshadow="0"
     inkscape:pageopacity="0"
     inkscape:pagecheckerboard="0"
     showgrid="false"
     inkscape:zoom="11.703125"
     inkscape:cx="27.813084"
     inkscape:cy="-11.236315"
     inkscape:window-width="1920"
     inkscape:window-height="936"
     inkscape:window-x="0"
     inkscape:window-y="40"
     inkscape:window-maximized="1"
     inkscape:current-layer="svg7" />
  <defs
     id="defs3">
    <linearGradient
       inkscape:collect="always"
       id="linearGradient1062">
      <stop
         style="stop-color:#df86f4;stop-opacity:1"
         offset="0"
         id="stop1058" />
      <stop
         style="stop-color:#9734cc;stop-opacity:1"
         offset="0.50555491"
         id="stop6865" />
      <stop
         style="stop-color:#2c097a;stop-opacity:1"
         offset="1"
         id="stop1060" />
    </linearGradient>
    <style
       id="current-color-scheme"
       type="text/css">.ColorScheme-Text { color:#363636; }</style>
    <linearGradient
       id="linearGradient1059"
       x1="163.41"
       x2="186"
       y1="-10.41"
       y2="-29.162001"
       gradientTransform="matrix(0.9001,0,0,0.7133,-124.38,-36.514)"
       gradientUnits="userSpaceOnUse"
       xlink:href="#linearGradient32418" />
    <linearGradient
       id="linearGradient32418">
      <stop
         stop-color="#9b39c5"
         offset="0"
         id="stop37" />
      <stop
         stop-color="#df86f4"
         offset="1"
         id="stop39" />
    </linearGradient>
    <linearGradient
       id="linearGradient1061"
       x1="153.34"
       x2="162.86"
       y1="-23.452999"
       y2="-3.5996001"
       gradientTransform="matrix(0.9001,0,0,0.7133,-124.38,-36.514)"
       gradientUnits="userSpaceOnUse"
       xlink:href="#linearGradient67431" />
    <linearGradient
       id="linearGradient67431">
      <stop
         stop-color="#6a21b4"
         offset="0"
         id="stop27" />
      <stop
         stop-color="#3b0c92"
         offset="1"
         id="stop29" />
    </linearGradient>
    <linearGradient
       id="linearGradient1063"
       x1="152.28999"
       x2="165.24001"
       y1="-19.549"
       y2="-1.3358999"
       gradientTransform="matrix(0.9001,0,0,0.7133,-124.38,-36.514)"
       gradientUnits="userSpaceOnUse"
       xlink:href="#linearGradient78036" />
    <linearGradient
       id="linearGradient78036">
      <stop
         stop-color="#441381"
         offset="0"
         id="stop22" />
      <stop
         stop-color="#280779"
         offset="1"
         id="stop24" />
    </linearGradient>
    <linearGradient
       id="linearGradient1065"
       x1="159.08"
       x2="163.25999"
       y1="-36.709"
       y2="-9.7538996"
       gradientTransform="matrix(0.9001,0,0,0.7133,-124.38,-36.514)"
       gradientUnits="userSpaceOnUse"
       xlink:href="#linearGradient51152" />
    <linearGradient
       id="linearGradient51152">
      <stop
         stop-color="#b244d9"
         offset="0"
         id="stop32" />
      <stop
         stop-color="#7520bb"
         offset="1"
         id="stop34" />
    </linearGradient>
    <linearGradient
       id="linearGradient1067"
       x1="194.86"
       x2="194.94"
       y1="7.0853"
       y2="-9.9609003"
       gradientTransform="matrix(0.9001,0,0,0.7133,-124.38,-36.514)"
       gradientUnits="userSpaceOnUse"
       xlink:href="#linearGradient112530" />
    <linearGradient
       id="linearGradient112530">
      <stop
         stop-color="#22bfed"
         offset="0"
         id="stop17" />
      <stop
         stop-color="#209be5"
         offset="1"
         id="stop19" />
    </linearGradient>
    <linearGradient
       id="linearGradient1069"
       x1="175.82001"
       x2="189.42999"
       y1="-17.188"
       y2="3.7852001"
       gradientTransform="matrix(0.9001,0,0,0.7133,-124.38,-36.514)"
       gradientUnits="userSpaceOnUse"
       xlink:href="#linearGradient123949" />
    <linearGradient
       id="linearGradient123949">
      <stop
         stop-color="#1b5fca"
         offset="0"
         id="stop12" />
      <stop
         stop-color="#1b9aed"
         offset="1"
         id="stop14" />
    </linearGradient>
    <linearGradient
       id="linearGradient1071"
       x1="147.14"
       x2="170.53"
       y1="6.6777"
       y2="36.178001"
       gradientTransform="matrix(0.9001,0,0,0.7133,-124.38,-36.514)"
       gradientUnits="userSpaceOnUse"
       xlink:href="#linearGradient147945" />
    <linearGradient
       id="linearGradient147945">
      <stop
         stop-color="#f7c43e"
         offset="0"
         id="stop2" />
      <stop
         stop-color="#f8995d"
         offset="1"
         id="stop4" />
    </linearGradient>
    <linearGradient
       id="linearGradient1073"
       x1="155.58"
       x2="170.53"
       y1="1.4211"
       y2="36.178001"
       gradientTransform="matrix(0.9001,0,0,0.7133,-124.38,-36.514)"
       gradientUnits="userSpaceOnUse"
       xlink:href="#linearGradient134504" />
    <linearGradient
       id="linearGradient134504">
      <stop
         stop-color="#fce57d"
         offset="0"
         id="stop7" />
      <stop
         stop-color="#feb076"
         offset="1"
         id="stop9" />
    </linearGradient>
    <linearGradient
       inkscape:collect="always"
       xlink:href="#linearGradient1062"
       id="linearGradient1064"
       x1="0"
       y1="7.5"
       x2="16"
       y2="7.5"
       gradientUnits="userSpaceOnUse" />
  </defs>
  <path
     d="m -15.797506,1 c -1.108,0 -2,0.892 -2,2 v 9 c 0,1.108 0.892,2 2,2 h 12 c 1.108,0 2,-0.892 2,-2 V 3 c 0,-1.108 -0.892,-2 -2,-2 z m 0,1 h 1 v 1 h -2 c 0,-0.554 0.446,-1 1,-1 z m 2,0 h 8 v 5 h -8 z m 9,0 h 1 c 0.554,0 1,0.446 1,1 h -2 z m -12,2 h 2 v 1 h -2 z m 12,0 h 2 v 1 h -2 z m -12,2 h 2 v 1 h -2 z m 12,0 h 2 v 1 h -2 z m -12,2 h 2 v 1 h -2 z m 3,0 h 8 v 5 h -8 z m 9,0 h 2 v 1 h -2 z m -12,2 h 2 v 1 h -2 z m 12,0 h 2 v 1 h -2 z m -12,2 h 2 v 1 h -1 c -0.554,0 -1,-0.446 -1,-1 z m 12,0 h 2 c 0,0.554 -0.446,1 -1,1 h -1 z"
     style="fill:currentColor"
     class="ColorScheme-Text"
     id="path5" />
  <path
     d="M 2,1 C 0.892,1 0,1.892 0,3 v 9 c 0,1.108 0.892,2 2,2 h 12 c 1.108,0 2,-0.892 2,-2 V 3 C 16,1.892 15.108,1 14,1 Z M 2,2 H 3 V 3 H 1 C 1,2.446 1.446,2 2,2 Z m 2,0 h 8 V 7 H 4 Z m 9,0 h 1 c 0.554,0 1,0.446 1,1 H 13 Z M 1,4 H 3 V 5 H 1 Z m 12,0 h 2 V 5 H 13 Z M 1,6 H 3 V 7 H 1 Z m 12,0 h 2 V 7 H 13 Z M 1,8 H 3 V 9 H 1 Z m 3,0 h 8 v 5 H 4 Z m 9,0 h 2 V 9 H 13 Z M 1,10 h 2 v 1 H 1 Z m 12,0 h 2 v 1 H 13 Z M 1,12 h 2 v 1 H 2 C 1.446,13 1,12.554 1,12 Z m 12,0 h 2 c 0,0.554 -0.446,1 -1,1 h -1 z"
     style="fill:url(#linearGradient1064);fill-opacity:1"
     class="ColorScheme-Text"
     id="path1056" />
</svg>
